assets/images/freifunk-flensburg.svg

<?xml version="1.0" encoding="UTF-8" standalone="no"?>
<!-- Created with Inkscape (http://www.inkscape.org/) -->

<svg
   xmlns:dc="http://purl.org/dc/elements/1.1/"
   xmlns:cc="http://creativecommons.org/ns#"
   xmlns:rdf="http://www.w3.org/1999/02/22-rdf-syntax-ns#"
   xmlns:svg="http://www.w3.org/2000/svg"
   xmlns="http://www.w3.org/2000/svg"
   xmlns:sodipodi="http://sodipodi.sourceforge.net/DTD/sodipodi-0.dtd"
   xmlns:inkscape="http://www.inkscape.org/namespaces/inkscape"
   width="912"
   height="291"
   viewBox="0 0 912.00001 291"
   id="svg3439"
   version="1.1"
   inkscape:version="0.91 r13725"
   sodipodi:docname="FF-Niederrhein_Logo_vector.svg">
  <defs
     id="defs3441" />
  <sodipodi:namedview
     id="base"
     pagecolor="#ffffff"
     bordercolor="#666666"
     borderopacity="1.0"
     inkscape:pageopacity="0.0"
     inkscape:pageshadow="2"
     inkscape:zoom="0.35"
     inkscape:cx="325"
     inkscape:cy="520"
     inkscape:document-units="px"
     inkscape:current-layer="layer1"
     showgrid="false"
     units="px"
     inkscape:window-width="1608"
     inkscape:window-height="1028"
     inkscape:window-x="64"
     inkscape:window-y="-8"
     inkscape:window-maximized="1" />
  <metadata
     id="metadata3444">
    <rdf:RDF>
      <cc:Work
         rdf:about="">
        <dc:format>image/svg+xml</dc:format>
        <dc:type
           rdf:resource="http://purl.org/dc/dcmitype/StillImage" />
        <dc:title></dc:title>
      </cc:Work>
    </rdf:RDF>
  </metadata>
  <g
     inkscape:label="Ebene 1"
     inkscape:groupmode="layer"
     id="layer1"
     transform="translate(0,-761.36216)">
    <g
       id="g3397"
       transform="matrix(2.906046,0,0,2.906046,24.66045,784.57372)"
       inkscape:export-xdpi="259.63657"
       inkscape:export-ydpi="259.63657">
      <g
         id="g3337">
        <path
           id="path3339"
           d="M 0,53.3 C 0,37.4 12.9,24.5 28.8,24.5 44.7,24.5 57.6,37.4 57.6,53.3 57.6,69.2 44.7,82 28.8,82 12.9,82 0,69.1 0,53.3 l 0,0 z"
           inkscape:connector-curvature="0"
           style="fill:#ffffff" />
        <path
           id="path3341"
           d="M 27.2,41.9 C 27.2,18.7 45.8,0 68.9,0 c 23,0 41.7,18.7 41.7,41.9 0,23.2 -18.7,41.8 -41.7,41.8 C 45.8,83.7 27.2,65 27.2,41.9 l 0,0 z"
           inkscape:connector-curvature="0"
           style="fill:#ffffff" />
        <path
           id="path3343"
           d="M 28.8,76.4 C 16,76.4 5.7,66 5.7,53.3 5.7,40.6 16,30.1 28.8,30.1 c 12.7,0 23.1,10.4 23.1,23.2 0,12.8 -10.4,23.1 -23.1,23.1 z m 0,-45.2 c -12.1,0 -22,9.9 -22,22.1 0,12.2 9.9,22.1 22,22.1 12.1,0 22,-9.9 22,-22.1 0,-12.2 -9.9,-22.1 -22,-22.1 z"
           inkscape:connector-curvature="0"
           style="fill:#dc0267" />
        <polygon
           id="polygon3345"
           points="57.6,48.1 67.2,38.5 76.2,38.5 69.8,44.9 82.5,44.9 82.5,51.3 69.8,51.3 76.2,57.7 67.2,57.7 57.6,48.1 "
           style="fill:#fab313" />
        <polygon
           id="polygon3347"
           points="29.4,48.1 23.7,42.5 18.4,42.5 22.2,46.2 14.7,46.2 14.7,50 22.2,50 18.4,53.8 23.7,53.8 29.4,48.1 "
           style="fill:#fab313" />
        <path
           id="path3349"
           d="M 68.9,76.9 C 49.6,76.9 34,61.2 34,41.8 34,22.5 49.7,6.7 68.9,6.7 c 19.3,0 34.9,15.7 34.9,35.1 0,19.4 -15.7,35.1 -34.9,35.1 z m 0,-63.3 c -15.5,0 -28.1,12.7 -28.1,28.3 0,15.6 12.6,28.3 28.1,28.3 C 84.4,70.1 97,57.5 97,41.9 97,26.3 84.4,13.6 68.9,13.6 Z"
           inkscape:connector-curvature="0"
           style="fill:#dc0267" />
        <path
           id="path3351"
           d="M 68.9,66.7 C 55.3,66.7 44.2,55.6 44.2,41.9 44.1,28.2 55.2,17 68.9,17 c 13.7,0 24.7,11.1 24.7,24.8 0,13.8 -11.1,24.9 -24.7,24.9 z m 0,-48.5 c -13,0 -23.6,10.6 -23.6,23.7 0,13.1 10.6,23.7 23.6,23.7 13,0 23.6,-10.6 23.6,-23.7 0,-13.1 -10.6,-23.7 -23.6,-23.7 z"
           inkscape:connector-curvature="0"
           style="fill:#dc0267" />
      </g>
      <text
         xml:space="preserve"
         style="font-style:normal;font-weight:normal;font-size:42.41165543px;line-height:85.00000238%;font-family:sans-serif;letter-spacing:0px;word-spacing:0px;fill:#dc0267;fill-opacity:1;stroke:none;stroke-width:1px;stroke-linecap:butt;stroke-linejoin:miter;stroke-opacity:1"
         x="109.38515"
         y="42.566181"
         id="text3426"
         sodipodi:linespacing="85.000002%"
         transform="scale(1.0316026,0.96936557)"><tspan
           sodipodi:role="line"
           x="109.38515"
           y="42.566181"
           style="font-style:normal;font-variant:normal;font-weight:normal;font-stretch:condensed;font-size:40px;line-height:85.00000238%;font-family:'Swiss911 XCm BT';-inkscape-font-specification:'Swiss911 XCm BT Condensed';letter-spacing:3.33999991px;fill:#dc0267;fill-opacity:1"
           id="tspan3430">Freifunk</tspan><tspan
           sodipodi:role="line"
           x="109.38515"
           y="76.566185"
           style="font-style:normal;font-variant:normal;font-weight:normal;font-stretch:condensed;font-size:40px;line-height:85.00000238%;font-family:'Swiss911 XCm BT';-inkscape-font-specification:'Swiss911 XCm BT Condensed';letter-spacing:3.33999991px;fill:#dc0267;fill-opacity:1"
           id="tspan3434">Niederrhein</tspan></text>
      <rect
         style="fill:none;fill-opacity:1;stroke:none;stroke-width:1.01724005"
         id="rect3393"
         width="316.28677"
         height="100.87174"
         x="-9.8133631"
         y="-8.7763815" />
    </g>
  </g>
</svg>

<?xml version="1.0" encoding="utf-8"?>
<!-- Generator: Adobe Illustrator 18.1.0, SVG Export Plug-In . SVG Version: 6.00 Build 0)  -->
<svg version="1.1" id="Ebene_1" xmlns="http://www.w3.org/2000/svg" xmlns:xlink="http://www.w3.org/1999/xlink" x="0px" y="0px"
	 viewBox="0 0 268.9 83.7" enable-background="new 0 0 268.9 83.7" xml:space="preserve">
<g>
	<path fill="#FFFFFF" d="M0,53.3c0-15.9,12.9-28.8,28.8-28.8c15.9,0,28.8,12.9,28.8,28.8S44.7,82,28.8,82C12.9,82,0,69.1,0,53.3
		L0,53.3z"/>
	<path fill="#FFFFFF" d="M27.2,41.9C27.2,18.7,45.8,0,68.9,0c23,0,41.7,18.7,41.7,41.9S91.9,83.7,68.9,83.7
		C45.8,83.7,27.2,65,27.2,41.9L27.2,41.9z"/>
	<path fill="#DC0267" d="M28.8,76.4C16,76.4,5.7,66,5.7,53.3S16,30.1,28.8,30.1c12.7,0,23.1,10.4,23.1,23.2S41.5,76.4,28.8,76.4z
		 M28.8,31.2c-12.1,0-22,9.9-22,22.1s9.9,22.1,22,22.1c12.1,0,22-9.9,22-22.1S40.9,31.2,28.8,31.2z"/>
	<polygon fill="#FAB313" points="57.6,48.1 67.2,38.5 76.2,38.5 69.8,44.9 82.5,44.9 82.5,51.3 69.8,51.3 76.2,57.7 67.2,57.7 
		57.6,48.1 	"/>
	<polygon fill="#FAB313" points="29.4,48.1 23.7,42.5 18.4,42.5 22.2,46.2 14.7,46.2 14.7,50 22.2,50 18.4,53.8 23.7,53.8 
		29.4,48.1 	"/>
	<path fill="#DC0267" d="M68.9,76.9c-19.3,0-34.9-15.7-34.9-35.1c0-19.3,15.7-35.1,34.9-35.1c19.3,0,34.9,15.7,34.9,35.1
		C103.8,61.2,88.1,76.9,68.9,76.9z M68.9,13.6c-15.5,0-28.1,12.7-28.1,28.3c0,15.6,12.6,28.3,28.1,28.3C84.4,70.1,97,57.5,97,41.9
		C97,26.3,84.4,13.6,68.9,13.6z"/>
	<path fill="#DC0267" d="M68.9,66.7c-13.6,0-24.7-11.1-24.7-24.8C44.1,28.2,55.2,17,68.9,17s24.7,11.1,24.7,24.8
		C93.6,55.6,82.5,66.7,68.9,66.7z M68.9,18.2c-13,0-23.6,10.6-23.6,23.7c0,13.1,10.6,23.7,23.6,23.7s23.6-10.6,23.6-23.7
		C92.5,28.8,81.9,18.2,68.9,18.2z"/>
</g>
<g>
	<path fill="#DC0267" d="M113.6,17.9h14.6v4.4h-9.4v5.4h8v4.4h-8v9h-5.3V17.9z"/>
	<path fill="#DC0267" d="M131.1,23.5h4.3l0.4,3.1h0.1c1.3-2.4,3.2-3.5,5-3.5c1,0,1.6,0.1,2.1,0.4l-0.9,4.5c-0.6-0.2-1.2-0.3-1.9-0.3
		c-1.3,0-3,0.9-3.9,3.2v10.2h-5.2V23.5z"/>
	<path fill="#DC0267" d="M152.2,23.1c5,0,7.5,3.7,7.5,8.5c0,0.9-0.1,1.8-0.2,2.2H149c0.5,2.7,2.2,3.8,4.6,3.8c1.3,0,2.5-0.4,3.8-1.2
		l1.7,3.2c-1.8,1.2-4.2,2-6.3,2c-5,0-8.9-3.4-8.9-9.2C143.9,26.6,148,23.1,152.2,23.1z M155.3,30.5c0-2-0.9-3.4-3-3.4
		c-1.6,0-3.1,1.1-3.4,3.4H155.3z"/>
	<path fill="#DC0267" d="M162.9,18.2c0-1.6,1.3-2.7,3-2.7c1.8,0,3,1.1,3,2.7s-1.2,2.7-3,2.7C164.2,20.9,162.9,19.8,162.9,18.2z
		 M163.4,23.5h5.2v17.6h-5.2V23.5z"/>
	<path fill="#DC0267" d="M183.1,20.2c-0.6-0.2-1.2-0.4-1.8-0.4c-1.3,0-2,0.7-2,2.5v1.1h3.2v4.1h-3.2v13.5h-5.2V27.6h-2.3v-3.9
		l2.3-0.2v-1c0-3.7,1.7-6.8,6.5-6.8c1.5,0,2.7,0.4,3.5,0.6L183.1,20.2z"/>
	<path fill="#DC0267" d="M185,23.5h5.2v10.3c0,2.5,0.7,3.3,2.2,3.3c1.3,0,2.1-0.6,3.1-2V23.5h5.2v17.6h-4.3l-0.4-2.5H196
		c-1.5,1.8-3.1,2.9-5.5,2.9c-3.8,0-5.5-2.7-5.5-7.1V23.5z"/>
	<path fill="#DC0267" d="M205.3,23.5h4.3l0.4,2.2h0.1c1.5-1.4,3.3-2.7,5.7-2.7c3.8,0,5.5,2.7,5.5,7.1v11H216V30.8
		c0-2.6-0.7-3.3-2.2-3.3c-1.3,0-2.1,0.6-3.3,1.7v11.9h-5.2V23.5z"/>
	<path fill="#DC0267" d="M225.7,16.2h5.1v14.3h0.1l5.6-7h5.7l-6.2,7.3l6.6,10.4H237l-4-6.9l-2.2,2.5v4.3h-5.1V16.2z"/>
</g>
<g>
	<path fill="#DC0267" d="M113.6,47.6h14.6V52l-9.4,0v5.4h8v4.4h-8v9h-5.3V47.6z"/>
	<path fill="#DC0267" d="M131.8,45.9h5.2v19.7c0,1.1,0.5,1.5,0.9,1.5c0.2,0,0.4,0,0.6-0.1l0.6,3.9c-0.6,0.2-1.5,0.4-2.6,0.4
		c-3.6,0-4.8-2.3-4.8-5.9V45.9z"/>
	<path fill="#DC0267" d="M149.3,52.7c5,0,7.5,3.7,7.5,8.5c0,0.9-0.1,1.8-0.2,2.2H146c0.5,2.7,2.2,3.8,4.6,3.8c1.3,0,2.5-0.4,3.8-1.2
		l1.7,3.2c-1.8,1.2-4.2,2-6.3,2c-5,0-8.9-3.4-8.9-9.2C141,56.3,145.1,52.7,149.3,52.7z M152.4,60.2c0-2-0.9-3.4-3-3.4
		c-1.6,0-3.1,1.1-3.4,3.4H152.4z"/>
	<path fill="#DC0267" d="M160.4,53.2h4.3l0.4,2.2h0.1c1.5-1.4,3.3-2.7,5.7-2.7c3.8,0,5.5,2.7,5.5,7.1v11h-5.2V60.5
		c0-2.6-0.7-3.3-2.2-3.3c-1.3,0-2.1,0.6-3.3,1.7v11.9h-5.2V53.2z"/>
	<path fill="#DC0267" d="M181.6,65.5c1.6,1.2,3.1,1.8,4.6,1.8c1.6,0,2.2-0.6,2.2-1.5c0-1.2-1.8-1.7-3.6-2.4
		c-2.1-0.8-4.7-2.3-4.7-5.2c0-3.3,2.7-5.5,6.8-5.5c2.7,0,4.7,1.1,6.2,2.2l-2.3,3.1c-1.3-0.9-2.5-1.5-3.7-1.5c-1.4,0-2,0.5-2,1.4
		c0,1.1,1.6,1.6,3.4,2.2c2.2,0.8,4.8,2.1,4.8,5.3c0,3.2-2.5,5.7-7.3,5.7c-2.3,0-5-1-6.8-2.5L181.6,65.5z"/>
	<path fill="#DC0267" d="M196.5,45.9h5.2V52l-0.1,2.7c1.4-1.2,3-2,4.7-2c4.3,0,6.9,3.5,6.9,8.9c0,6.1-3.6,9.6-7.4,9.6
		c-1.6,0-3.2-0.8-4.6-2.3H201l-0.4,1.8h-4.1V45.9z M204.6,67c1.8,0,3.3-1.6,3.3-5.2c0-3.2-1-4.8-3.1-4.8c-1.1,0-2,0.5-3,1.6v7.2
		C202.7,66.7,203.7,67,204.6,67z"/>
	<path fill="#DC0267" d="M216.7,53.2h5.2v10.3c0,2.5,0.7,3.3,2.2,3.3c1.3,0,2.1-0.6,3.1-2V53.2h5.2v17.6h-4.3l-0.4-2.5h-0.1
		c-1.5,1.8-3.1,2.9-5.5,2.9c-3.8,0-5.5-2.7-5.5-7.1V53.2z"/>
	<path fill="#DC0267" d="M237.1,53.2h4.3l0.4,3.1h0.1c1.3-2.4,3.2-3.5,5-3.5c1,0,1.6,0.1,2.1,0.4l-0.9,4.5c-0.6-0.2-1.2-0.3-1.9-0.3
		c-1.3,0-3,0.9-3.9,3.2v10.2h-5.2V53.2z"/>
	<path fill="#DC0267" d="M252.3,70.3v-0.1c-0.9-0.6-1.6-1.5-1.6-3c0-1.3,0.9-2.5,2-3.3v-0.1c-1.2-0.9-2.4-2.5-2.4-4.6
		c0-4.2,3.5-6.4,7.3-6.4c1,0,2,0.1,2.7,0.4h6.4V57h-2.8c0.3,0.5,0.6,1.4,0.6,2.3c0,4.1-3.1,5.9-6.9,5.9c-0.6,0-1.4-0.1-2.1-0.4
		c-0.5,0.4-0.6,0.7-0.6,1.3c0,0.9,0.7,1.3,2.7,1.3h2.8c4.3,0,6.7,1.3,6.7,4.5c0,3.7-3.8,6.3-9.8,6.3c-4.1,0-7.4-1.4-7.4-4.5
		C249.8,72.4,250.7,71.2,252.3,70.3z M258,75c2.3,0,4.1-1,4.1-2.2c0-1.1-1-1.4-2.7-1.4h-1.8c-1.2,0-1.9-0.1-2.5-0.2
		c-0.6,0.6-1,1.1-1,1.7C254.1,74.3,255.7,75,258,75z M260,59.1c0-1.8-1-2.8-2.4-2.8s-2.4,1-2.4,2.8c0,2,1,3,2.4,3S260,61.1,260,59.1
		z"/>
</g>
</svg>
